X:680
T:Bourre la Tricotada
M:3/8
O:France
R:Bourre
Z:Richard Robinson 
%%TUNEURL: http://www.leeds.ac.uk/music/Info/RRTuneBk/gettune/00000b4b.html
%%ID:00000b4b
K:C
e2g2f2| e4d2| cdedef| efedc2|\
e2g2f2| e4d2|1 cdedef| g6 :|2 cde2d2| c4||
|:ed | \
c2B2c2| d4d2| cdedef| e2d2c2|\
c2B2c2| d4d2| cde2d2| c4 :|
